material/.icons/material/bookshelf.svg

<svg xmlns="http://www.w3.org/2000/svg" viewBox="0 0 24 24"><path d="M9 3v15h3V3H9m3 2l4 13 3-1-4-13-3 1M5 5v13h3V5H5M3 19v2h18v-2H3z"/></svg>

<?xml version="1.0" encoding="UTF-8"?><!DOCTYPE svg PUBLIC "-//W3C//DTD SVG 1.1//EN" "http://www.w3.org/Graphics/SVG/1.1/DTD/svg11.dtd"><svg xmlns="http://www.w3.org/2000/svg" xmlns:xlink="http://www.w3.org/1999/xlink" version="1.1" id="mdi-bookshelf" width="24" height="24" viewBox="0 0 24 24"><path d="M9 3V18H12V3H9M12 5L16 18L19 17L15 4L12 5M5 5V18H8V5H5M3 19V21H21V19H3Z" /></svg>
